X:83
T: SINTE MARTENS VOGELTJE
N: K1668
O: Europa, Mitteleuropa, Deutschland
R: Kinder -, Ansinge - Lied, Bettel - Reim
M: 2/4
L: 1/16
K: G
 | G2A2B2B2 | A2A2G2z2
G2GAB2B2 | A2A2G2
B2 | A4G2B2 | A4G2B2 | A4G2
D2 | G2A2B2B2 | A2A2G2z2
A4G2z2 | A2A2G2z2
d2d2F2F2 | G2G2G4

